X:535
T: SCHOENSTES SCHAETZCHEN
N: E0518A
O: Europa, Mitteleuropa, Deutschland, Hessen, Odenwald; Wetterau
R: Liebes - Lied
M: 3/8
L: 1/16
K: C
CE | G2E2GA | GFD2
GF | E3FE2 | D4
G,2 | C2C2DF | E2E2
FA | G2E2D2 | C4

